lib/svgs/refresh.svg

<svg xmlns="http://www.w3.org/2000/svg" viewBox="0 0 20 20">
    <path fill="#000" fill-rule="evenodd" d="M4.50826499,14.0665543 C5.71873677,15.7473763 7.6995494,16.7820711 9.8811,16.7820711 C13.5547292,16.7820711 16.5631,13.7737003 16.5631,10.1000711 C16.5631,9.76870028 16.8317292,9.50007113 17.1631,9.50007113 C17.4944708,9.50007113 17.7631,9.76870028 17.7631,10.1000711 C17.7631,14.436442 14.2174708,17.9820711 9.8811,17.9820711 C7.40907251,17.9820711 5.14926925,16.8512109 3.70461844,14.995069 L3.34015019,17.6807561 C3.2955891,18.0091171 2.993276,18.2391824 2.664915,18.1946213 C2.336554,18.1500602 2.10648871,17.8477471 2.15104981,17.5193861 L2.73404981,13.2233861 C2.7785346,12.8955874 3.07993916,12.6656365 3.40784472,12.7093273 L7.77584472,13.2913273 C8.10431269,13.3350929 8.33510952,13.6368479 8.29134387,13.9653158 C8.24757822,14.2937838 7.94582325,14.5245806 7.61735528,14.480815 L4.50826499,14.0665543 L4.50826499,14.0665543 Z M15.254835,6.13358791 C14.0443632,4.45276598 12.0635506,3.41807113 9.882,3.41807113 C6.20837085,3.41807113 3.2,6.42644198 3.2,10.1000711 C3.2,10.431442 2.93137085,10.7000711 2.6,10.7000711 C2.26862915,10.7000711 2,10.431442 2,10.1000711 C2,5.76370028 5.54562915,2.21807113 9.882,2.21807113 C12.3540275,2.21807113 14.6138307,3.34893135 16.0584816,5.20507321 L16.4229498,2.51938613 C16.4675109,2.19102512 16.769824,1.96095984 17.098185,2.00552093 C17.426546,2.05008203 17.6566113,2.35239512 17.6120502,2.68075613 L17.0290502,6.97675613 C16.9845654,7.3045549 16.6831608,7.53450571 16.3552553,7.490815 L11.9872553,6.908815 C11.6587873,6.86504935 11.4279905,6.56329438 11.4717561,6.23482641 C11.5155218,5.90635844 11.8172767,5.6755616 12.1457447,5.71932725 L15.254835,6.13358791 L15.254835,6.13358791 Z"/>
</svg>

<svg xmlns="http://www.w3.org/2000/svg" viewBox="0 0 20 20">
    <path fill="#000" fill-rule="evenodd" d="M4.508 14.067a6.595 6.595 0 0 0 5.373 2.715 6.704 6.704 0 0 0 6.682-6.682.6.6 0 0 1 1.2 0 7.904 7.904 0 0 1-7.882 7.882 7.803 7.803 0 0 1-6.176-2.987l-.365 2.686a.6.6 0 1 1-1.189-.162l.583-4.296a.6.6 0 0 1 .674-.514l4.368.582a.6.6 0 1 1-.159 1.19l-3.109-.414m10.747-7.933a6.595 6.595 0 0 0-5.373-2.716A6.704 6.704 0 0 0 3.2 10.1a.6.6 0 1 1-1.2 0 7.904 7.904 0 0 1 7.882-7.882 7.803 7.803 0 0 1 6.176 2.987l.365-2.686a.6.6 0 0 1 1.19.162l-.584 4.296a.6.6 0 0 1-.674.514l-4.368-.582a.6.6 0 0 1 .159-1.19l3.109.415"/>
</svg>
